src/images/icons/icons_separatly/shopping_bag.svg

<svg width="20" height="20" viewBox="0 0 20 20" fill="none" xmlns="http://www.w3.org/2000/svg">
<path d="M15.8335 5.83335H13.3335V5.00002C13.3335 4.11596 12.9823 3.26812 12.3572 2.643C11.7321 2.01788 10.8842 1.66669 10.0002 1.66669C9.11611 1.66669 8.26826 2.01788 7.64314 2.643C7.01802 3.26812 6.66683 4.11596 6.66683 5.00002V5.83335H4.16683C3.94582 5.83335 3.73385 5.92115 3.57757 6.07743C3.42129 6.23371 3.3335 6.44567 3.3335 6.66669V15.8334C3.3335 16.4964 3.59689 17.1323 4.06573 17.6011C4.53457 18.07 5.17045 18.3334 5.8335 18.3334H14.1668C14.8299 18.3334 15.4658 18.07 15.9346 17.6011C16.4034 17.1323 16.6668 16.4964 16.6668 15.8334V6.66669C16.6668 6.44567 16.579 6.23371 16.4227 6.07743C16.2665 5.92115 16.0545 5.83335 15.8335 5.83335ZM8.33349 5.00002C8.33349 4.55799 8.50909 4.13407 8.82165 3.82151C9.13421 3.50895 9.55813 3.33335 10.0002 3.33335C10.4422 3.33335 10.8661 3.50895 11.1787 3.82151C11.4912 4.13407 11.6668 4.55799 11.6668 5.00002V5.83335H8.33349V5.00002ZM15.0002 15.8334C15.0002 16.0544 14.9124 16.2663 14.7561 16.4226C14.5998 16.5789 14.3878 16.6667 14.1668 16.6667H5.8335C5.61248 16.6667 5.40052 16.5789 5.24424 16.4226C5.08796 16.2663 5.00016 16.0544 5.00016 15.8334V7.50002H6.66683V8.33335C6.66683 8.55437 6.75463 8.76633 6.91091 8.92261C7.06719 9.07889 7.27915 9.16669 7.50016 9.16669C7.72117 9.16669 7.93314 9.07889 8.08942 8.92261C8.2457 8.76633 8.33349 8.55437 8.33349 8.33335V7.50002H11.6668V8.33335C11.6668 8.55437 11.7546 8.76633 11.9109 8.92261C12.0672 9.07889 12.2791 9.16669 12.5002 9.16669C12.7212 9.16669 12.9331 9.07889 13.0894 8.92261C13.2457 8.76633 13.3335 8.55437 13.3335 8.33335V7.50002H15.0002V15.8334Z" fill="#111111"/>
</svg>

<svg xmlns="http://www.w3.org/2000/svg" width="20" height="20" fill="none"><path fill="#111" d="M15.834 5.833h-2.5V5a3.333 3.333 0 0 0-6.667 0v.833h-2.5a.833.833 0 0 0-.833.834v9.166a2.5 2.5 0 0 0 2.5 2.5h8.333a2.5 2.5 0 0 0 2.5-2.5V6.667a.833.833 0 0 0-.834-.834ZM8.334 5a1.667 1.667 0 0 1 3.333 0v.833H8.333V5ZM15 15.833a.833.833 0 0 1-.833.834H5.833A.833.833 0 0 1 5 15.833V7.5h1.667v.833a.833.833 0 1 0 1.666 0V7.5h3.334v.833a.833.833 0 1 0 1.667 0V7.5H15v8.333Z"/></svg>
